X:346
T: ZIEHT DER DEUTSCHE IN DEN KRIEG
N: F0595
O: Europa, Mitteleuropa, Deutschland
R: Soldaten - Lied, Krieg, national
M: 2/4
L: 1/8
K: C
 | EFG2 | G2G2 | A2A2 | G4
EFG2 | G2G2 | A2A2 | G4
G2z2 | G2z2 | G2G2 | G2G2
G2z2 | G2z2 | G2G2 | G4 | G2z2

